!!!COM:	Obrecht, Jacob
!!!CDT:	1458-1505/07/
!!!OPR:	Missa Ave regina celorum
!!!ONM:	1
!!!OTL:	Kyrie
!!!AGN:	Mass; Kyrie
!!!SCT:	Obr1002a
!!!SCA:	Obr1002a
!!!voices-OPR:	4
!!!voices:	4
**kern	**kern	**kern	**kern
*staff4	*staff3	*staff2	*staff1
*Ivox	*Ivox	*Ivox	*Ivox
*I"Bassus	*I"Tenor	*I"Altus	*I"Discantus
*I'B	*I'T	*I'A	*I'D
*>[A,B,C]	*>[A,B,C]	*>[A,B,C]	*>[A,B,C]
*>A	*>A	*>A	*>A
*clefF4	*clefGv2	*clefGv2	*clefG2
*k[b-]	*k[b-]	*k[b-]	*k[b-]
*M3/1	*M3/1	*M3/1	*M3/1
*met(O)	*met(C.)	*met(O)	*met(O)
!!section: Kyrie I
!!!OMD: Kyrie I
=1-	=1-	=1-	=1-
!	!LO:TX:X=-40:Z=8:t=Two tenor statements, each under a different mensuration sign	!	!
*	*rscale:1/2	*	*
!	!LO:N:vis=0.	!	!
0.FF	[y0.c	0.F	0.f
=2	=2-	=2	=2
0C	0.c]yy	0.G	0e
1C	.	.	1e
=3	=3	=3	=3
1D	0.A	1.F	1f
2.D\	.	.	2.f/
.	.	1D	.
4E\	.	.	4g/
2F\	.	.	2a/
[2D\	.	[2d\	[2f/
=4	=4-	=4	=4
2D\]	0.F	2d\]	2f/]
2.F\	.	2c\	2.a/
.	.	1.A	.
4E\	.	.	4g/
4D\	.	.	4f/
4C/	.	.	4e/
1D	.	.	1f
.	.	2B-\	.
=5	=5	=5	=5
0C	0.G	0c	1.e
.	.	.	1g
1C	.	1c	.
.	.	.	4f/
.	.	.	4e/
=6	=6-	=6	=6
1BB-	1B-	1F	1d
2C/	0A	2E/	1r
2.D\	.	2.F/	.
.	.	.	[1a
4E\	.	4G/	.
[2F\	.	4A/	.
.	.	4B-\	.
=7	=7	=7	=7
2F\]	0F	2c\	2a/]
2.BB-/	.	2.d\	2.b-\
4C/	.	4c\	4a/
4D\	.	1A	4f/
4E\	.	.	4g/
2F\	1r	.	2a/
2D\	.	[2d\	[2b-\
=8	=8-	=8	=8
1E	1G	2d\]	2b-\]
.	.	2c#i\	4a/
.	.	.	4g/
1D	1A	2d\	2f/
.	.	2D/	1a
1r	1B-	2G/	.
.	.	2E/	2g/
=9	=9	=9	=9
!	!LO:N:vis=0.	!	!
0AA	[y0.c	1E	2a/
.	.	.	2.cc\
.	.	2F/	.
.	.	.	4b-\
.	.	2E/	2a/
1AA	.	2.A/	2e/
.	.	.	2a/
.	.	8G/L	.
.	.	8F/J	.
=10	=10-	=10	=10
2.C/	0.c]yy	1E	2g/
.	.	.	2.e/
4BB-/	.	.	.
2AA/	.	1A	.
.	.	.	4c/
2FF/	.	.	1f
1C	.	2G/	.
.	.	[2A/	2e/
=11	=11	=11	=11
*	*rscale:1	*	*
*	*M3/1	*	*
*	*met(O)	*	*
2FF/	0c	2A/]	1f
1F	.	4G/	.
.	.	4F/	.
.	.	1G	1r
2E\	.	.	.
2F\	1A	2F/	2r
[2D\	.	[2f\	[2a/
=12	=12	=12	=12
4D\]	1F	4f\]	2a/]
4C/	.	4e\	.
4BB-/	.	4d\	2.b-\
4AA/	.	4c\	.
1GG	1G	2.B-\	.
.	.	.	4a/
.	.	.	4g/
.	.	4c\	4f/
2r	2B-\	2d\	2g/
[2FF/	2A/	[2c\	[2a/
=13	=13	=13	=13
4FF/]	1F	4c\]	4a/]
4GG/	.	4B-\	4g/
4AA/	.	2A/	2f/
4BB-/	.	.	.
4C/	2r	4G/	2e/
4D\	.	2c\	.
2E\	2G/	.	2g/
.	.	4B-\	.
1D	2A/	1d	2f/
.	2B-\	.	4e/
.	.	.	4d/
=14	=14	=14	=14
0.Cl	0.cl	0.Gl	0.el
!!LO:LB:i:g=z
=15||	=15||	=15||	=15||
*>B	*>B	*>B	*>B
*clefF4	*clefGv2	*clefGv2	*clefG2
*k[b-]	*k[b-]	*k[b-]	*k[b-]
*M2/1	*M2/1	*M2/1	*M2/1
*met(O2)	*met(O)	*met(O2)	*met(O2)
*	*rscale:1/2	*	*
!!section: Christe
!!!OMD: Christe
0r	0f	0r	1.a
.	.	.	2b-\
=16.	=16-	=16.	=16.
0r	0f	0r	1cc
.	.	.	[1dd
=17.	=17-	=17.	=17.
0r	0e	0r	2dd\]
.	.	.	2cc\
.	.	.	[1cc
=18	=18	=18	=18
0r	0d	0f	1cc]
.	.	.	1bni
=19.	=19-	=19.	=19.
0r	1.c	1.e	1cc
.	.	.	1r
.	2B-\	2d\	.
=20.	=20-	=20.	=20.
0r	1A	1f	0r
.	1G	1e	.
=21	=21	=21	=21
0r	1F	1d	0r
.	1E	[1g	.
=22.	=22-	=22.	=22.
0r	0A	2g\]	0r
.	.	2f\	.
.	.	[1f	.
=23.	=23-	=23.	=23.
0r	0G	1f]	0r
.	.	1e	.
=24	=24	=24	=24
1.FF	[0F	1.f	0r
2GG/	.	4e\	.
.	.	4d\	.
=25.	=25-	=25.	=25.
1AA	0F_	1c	0r
1BB-	.	1d	.
=26.	=26-	=26.	=26.
2AA/	0F]	2c\	0r
1BB-	.	1d	.
4AA/	.	4c\	.
4GG/	.	4B-\	.
=27	=27	=27	=27
2FF/	1r	2c\	0r
1F	.	2A/	.
.	[1c	1G	.
2E\	.	.	.
=28.	=28-	=28.	=28.
1F	1c]	2F/	0r
.	.	2f\	.
1G	1B-	2e\	.
.	.	[2d\	.
=29.	=29-	=29.	=29.
0E	0G	2d\]	0r
.	.	4c#i\	.
.	.	4Bni\	.
.	.	1c#i	.
=30	=30	=30	=30
0D	0F	[0d	1r
.	.	.	[1a
=31.	=31-	=31.	=31.
0r	0B-	0d]	2a/]
.	.	.	2g/
.	.	.	[1g
=32.	=32-	=32.	=32.
0r	0A	1.c	1g]
.	.	.	1f#i
.	.	4B-\	.
.	.	4A/	.
=33	=33	=33	=33
1GG	1G	1B-	1g
2AA/	[1c	2A/	2f/
[2C/	.	[2G/	[2e/
=34.	=34-	=34.	=34.
2C/]	1c]	2G/]	2e/]
4BB-/	.	2F/	2f/
4AA/	.	.	.
1GG	1B-	2G/	1d
.	.	2B-\	.
=35.	=35-	=35.	=35.
1r	0c	1A	0e
[1C	.	1G	.
=36	=36	=36	=36
1C]	1G	1.c	0r
1F	1A	.	.
.	.	[2c\	.
=37.	=37-	=37.	=37.
1C	1G	2c\]	1r
.	.	4B-\	.
.	.	4A/	.
1E	[1c	1G	1e
=38.	=38-	=38.	=38.
0D	1c]	0r	1.f
.	1Bni	.	.
.	.	.	4e/
.	.	.	4d/
=39	=39	=39	=39
*	*rscale:1	*	*
*	*M2/1	*	*
*	*met(C|)	*	*
1C	1c	1G	1e
2r	1F	1A	[1f
[2F\	.	.	.
=40.	=40	=40.	=40.
2F\]	2A/	2F/	2f/]
2E\	2G/	1c	2g/
1F	1F	.	1a
.	.	2d\	.
=41.	=41	=41.	=41.
1C	2r	2e\	2g/
.	2c\	1c	2e/
1r	2A/	.	1f
.	2B-\	2d\	.
=42	=42	=42	=42
1C	0c	2G/	1e
.	.	1A	.
1F	.	.	1r
.	.	4G/	.
.	.	4F/	.
=43.	=43	=43.	=43.
1E	2r	1c	1e
.	2G/	.	.
1D	2A/	1d	2f/
.	2B-\	.	2d/
=44.	=44	=44.	=44.
0C	1c	2r	2e/
.	.	2.e-\	2.g/
.	2r	.	.
.	.	4d\	4f/
.	2G/	4c\	4e/
.	.	4B-\	4d/
=45	=45	=45	=45
1r	2A/	2c\	2c/
.	2B-\	2B-\	2d/
[1C	2.c\	2G/	1e
.	.	4A/	.
.	4B-\	4B-\	.
=46.	=46	=46.	=46.
2C/]	2G/	2c\	2r
2.D\	2F/	2.A/	2.f/
.	1A	.	.
4C/	.	4B-\	4g/
2AA/	.	2c\	2a/
=47.	=47	=47.	=47.
2BB-/	1G	2d\	2d/
2C/	.	2.e-i\	2.g/
1GG	2r	.	.
.	.	4d\	4f/
.	2B-\	2B-\	2d/
=48	=48	=48	=48
2AA/	2A/	2c\	2r
2.FF/	2.c\	2.A/	2.a/
4GG/	4B-\	4B-\	4g/
4AA/	2A/	[2c\	2f/
4BB-/	.	.	.
=49.	=49	=49.	=49.
2C/	1G	4c\]	2e/
.	.	4B-\	.
2E-\	.	2G/	2g/
2D\	2r	2A/	2f/
2BB-/	2F/	2d\	2b-\
=50.	=50	=50.	=50.
2C/	2E/	2c\	2a/
2D\	2F/	2B-\	1f
1C	1G	1c	.
.	.	.	2e/
=51	=51	=51	=51
0FFl	0Fl	0cl	0fl
!!LO:LB:i:g=z
=52||	=52||	=52||	=52||
*>C	*>C	*>C	*>C
*clefF4	*clefGv2	*clefGv2	*clefG2
*k[b-]	*k[b-]	*k[b-]	*k[b-]
*M2/1	*M2/1	*M2/1	*M2/1
*met(O|)	*met(O|)	*met(O|)	*met(O|)
!!section: Kyrie II
!!!OMD: Kyrie II
1.F	0c	1.A	1.f
2E\	.	2G/	2g/
2D\	1f	1F	2a/
2BB-/	.	.	2b-\
=53	=53	=53	=53
2C/	2e\	2r	2g/
2AA/	2c\	1f	2a/
1GG	1B-	.	2.b-\
.	.	2e\	.
.	.	.	4g/
1FF	1c	2f\	2a/
.	.	2c\	[2cc\
=54	=54	=54	=54
1r	2r	1d	2cc\]
.	2G/	.	2b-\
2.FF/	2A/	2.c\	2cc\
.	1c	.	1a
4GG/	.	4B-\	.
2AA/	.	4A/	.
.	.	4G/	.
2BB-/	2B-\	2F/	2d/
=55	=55	=55	=55
2C/	2A/	2r	2e/
2D\	2F/	2f\	2f/
2E\	2G/	2e\	2r
2F\	2A/	2c\	2f/
4BB-/	1B-	1d	2.f/
4C/	.	.	.
4D\	.	.	.
4E\	.	.	4g/
=56	=56	=56	=56
2F\	1A	2c\	2a/
2D\	.	2d\	2f/
1C	1r	1e	2g/
.	.	.	2a/
1BB-	1d	1f	1b-
=57	=57	=57	=57
2r	1d	1f	2a/
2BB-/	.	.	2.b-\
2C/	2c\	2e\	.
.	.	.	4a/
2D\	2A/	2f\	1a
1GG	1B-	1d	.
.	.	.	2g/
=58	=58	=58	=58
2r	1A	2c\	1a
2D\	.	1d	.
1E-	2r	.	1r
.	2G/	2c\	.
2D\	1F	2d\	2r
[2BB-/	.	[2f\	[2d/
=59	=59	=59	=59
4BB-/]	2B-\	4f\]	2d/]
4C/	.	4e\	.
2.D\	2A/	1d	2.f/
.	1F	.	.
4E\	.	.	4g/
2.F\	.	2c\	2.a/
.	2A/	2d\	.
4E\	.	.	4g/
[2C/	[2c\	2G/	[2e/
=60	=60	=60	=60
4C/]	2c\]	1G	2e/]
4D\	.	.	.
2E\	2B-\	.	2.g/
1F	1A	1r	.
.	.	.	4f/
.	.	.	1f
1C	1G	1c	.
.	.	.	2e/
=61	=61	=61	=61
1FF	0F	2A/	2.f/
.	.	2.c\	.
.	.	.	4g/
2r	.	.	4a/
.	.	4B-\	4g/
1F	.	4A/	1a
.	.	4G/	.
.	2r	2F/	.
2E\	[2c\	2r	2g/
=62	=62	=62	=62
2F\	2c\]	2.F/	2a/
2D\	2B-\	.	2b-\
.	.	4G/	.
1C	1c	4A/	2a/
.	.	4B-\	.
.	.	4c\	1g
.	.	4G/	.
1BB-	1d	1B-	.
.	.	.	[2f/
=63	=63	=63	=63
1C	0c	1G	2f/]
.	.	.	2e/
1FF	.	1.F	2.f/
.	.	.	4g/
2r	1f	.	4a/
.	.	.	4b-\
2FF/	.	[2A/	[2cc\
=64	=64	=64	=64
0C	1.e	4A/]	4cc\]
.	.	4B-\	4b-\
.	.	2.c\	2g/
.	.	.	2r
.	.	4d\	.
.	1c	2e\	2g/
2.F\	.	2.f\	2.a/
.	2f\	.	.
4G\	.	4e\	4b-\
=65	=65	=65	=65
2A\	2e\	2c\	2cc\
2.B-\	1d	2.g\	2dd\
.	.	.	2b-\
4F\	.	4f\	.
2A\	1c	1f	2cc\
1G	.	.	2dd\
.	2B-\	2e\	4cc\
.	.	.	4b-\
=66	=66	=66	=66
1F	1c	1.f	2a/
.	.	.	2.cc\
2r	1F	.	.
.	.	.	4b-\
1F	.	4e\	4a/
.	.	4d\	4g/
.	2A/	1c	2f/
2E\	2G/	.	2g/
=67	=67	=67	=67
2F\	1F	2r	1a
1D	.	1f	.
.	2r	.	2r
2C/	2c\	2e\	1a
2D\	2A/	2f\	.
2BB-/	2B-\	2d\	2g/
=68	=68	=68	=68
1AA	0c	2e\	2a/
.	.	2E/	2.cc\
2r	.	1F	.
.	.	.	4b-\
2AA/	.	.	4a/
.	.	.	4g/
1BB-	2r	1D	2f/
.	2G/	.	2d/
=69	=69	=69	=69
1AA	2.A/	1E	2.c/
.	4B-\	.	4d/
2r	1c	1C	2e/
2AA/	.	.	1f
1BB-	2r	2.D/	.
.	2G/	.	4e/
.	.	4E/	4d/
=70	=70	=70	=70
2AA/	2A/	2F/	2c/
2GG/	2B-\	2G/	2r
2.AA/	2.c\	1E	2.c/
4BB-/	4B-\	.	4d/
2C/	2G/	1r	2e/
2D\	2F/	.	[2f/
=71	=71	=71	=71
1AA	1A	1e	4f/]
.	.	.	4g/
.	.	.	2a/
1r	1G	2.g\	2.b-\
.	.	4f\	4a/
1r	2r	2e\	2g/
.	2B-\	2d\	2f/
=72	=72	=72	=72
2.AA/	2A/	1.e	2.cc\
.	2.c\	.	.
4BB-/	.	.	8b-/L
.	.	.	8a/J
2C/	.	.	2g/
.	4B-\	.	.
2D\	2A/	2f\	2f/
2GG/	1G	2.g\	2.b-\
[2BB-/	.	.	.
.	.	4f\	4a/
=73	=73	=73	=73
4BB-/]	2r	2d\	2f/
4AA/	.	.	.
2FF/	2F/	1c	2a/
2r	2E/	.	2g/
2FF/	2F/	2.c\	1f
1C	1G	.	.
.	.	4B-\	.
.	.	2G/	2e/
=74	=74	=74	=74
[0.FFl	[0.Fl	0.A	[0.fl
=75	=75	=75	=75
0.FF]	0.F]	0.cl	0.f]
==	==	==	==
*-	*-	*-	*-
!!!RDF**kern: l=long note in original notation
!!!RDF**kern: i=editorial accidental
!!!ENC:	Jesse Rodin 8/26/2013
!!!END:	2013/08/26/
!!!EED:	Jesse Rodin
!!!EEV:	2013/08/29/
!!!ONB:	Translated from MusicXML and edited on 2013/08/29/ by Craig Sapp
!!muse2ps: T^@{OPR}^u^@{ONM}{. }@{OTL}^C^@{COM}^i2I150v85,85,85,150c180
